X: 1
T: Keys To The Door, The
M: 3/2
L: 1/8
R: three-two
K: Gmaj
e|dB AG E/F/G|D>E DB, A,G,|D>G Bc cB|A>B AG E/F/G|
DB AG E/F/G|D>E DB, A,G,|d>B GA GE|DG GF G:|
|:A|Be ef g/f/e|dB Bd e/f/g|af fe fe|dB AG F/G/A|
Be ef g/f/e|d2-dB A/B/c|1 B>g gf ed|e2-ee d:|2 d>B GA GE|DG GF G||
